X:226
T:Hogmanay Jig
C:Joe Buchanan's Scottish Tome - Page 291.1
I:291 1
Z:Carl Allison
R:Jig
L:1/8
M:6/8
K:A
B | c2 c cdc | B2 A A2 B | c2 c cBA | G2 F F3 |
G2 G GAG | F2 E E2 F | EGB ede | d2 c cAB |
c2 c cdc | B2 A A2 B | c2 c cBA | G2 F F3 |
G2 G GAG | F2 E E2 F | EGB dcB | A3 A2 B |
c2 c B2 B | A2 A G2 G | F2 F FEF | G3 GEG |
d2 d c2 c | B2 B A2 A | GAG FGF | E3 ECE |
c2 c B2 B | A2 A G2 G | F2 F FEF | G3 GEG |
d2 d c2 c | BcB AGF | EGB dcB | A3 A2 |]

